X: 29507
T: Nine Pint Coggie, The
R: reel
M: 4/4
K: Edorian
|:D|B,EEF (3EFE DB|AFED FAAd|AB{d}BA defe|dD~D2 FEED|
B,EEF (3EFE DB|AFED FAAd|AB{d}BA defe|dBAF BEE:|
|:D|Eeef ~e2dB|defe dBAd|Beed efab|afed ~e3f|
abaf edef|dBAF ABde|faef ~d2Be|1 dD~D2 FEE:|2 dBAF BEE||

